X: 115103
T: MISS CRAWFORDS STRATHSPEY
C: by A. Mc. ALPIN.
Q: "Strathspey."
R:  Strathspey.
%R: strathspey
B: James Kerr "Merry Melodies" v.1 p.15 s.1 #3
Z: 2017 John Chambers <jc:trillian.mit.edu>
M: C
L: 1/8
%%slurgraces yes
%%graceslurs yes
K: A
uE |\
vA<uA vc>uA ve>uc e<a | A<A c>A d/c/B/A/ G<B |\
A<A c>A e>c e<a | (3fed (3cBA (3GBA (3GFE |\
A<A c>A e>c e<a |
A<A c>A d/c/B/A/ G<B |\
A<A c>A  e>c e<a | (3fga (3bge a2- a |]\
ue |\
!1!a!0!A !3!c'!0!A !4!e'!0!A !3!c'!0!A | aA c'A {c'}b>a b<c' |
aA c'A e'A c'A | (3!3!def (3edB cA Ae |\
aA c'A e'A c'A |  aA c'A {c'}b>a b<c' |\
(3!0!A!2!ce (3ecA (3def (3fdB | (3cde (3fbg a2- a |]

%%sep 1 1 500
%%sep 1 1 500

